img/shopping_cart_white.svg

<svg width="20" height="18" viewBox="0 0 20 18" fill="none" xmlns="http://www.w3.org/2000/svg">
<path d="M19.08 3.97889C18.9072 3.68113 18.6598 3.433 18.3618 3.25869C18.0639 3.08438 17.7256 2.98985 17.38 2.98431H4.58L4 0.73657C3.9414 0.519591 3.81066 0.328738 3.62908 0.195095C3.44749 0.0614512 3.22576 -0.007108 3 0.0005833H1C0.734783 0.0005833 0.480429 0.105369 0.292893 0.291888C0.105357 0.478407 0 0.731382 0 0.99516C0 1.25894 0.105357 1.51191 0.292893 1.69843C0.480429 1.88495 0.734783 1.98974 1 1.98974H2.24L5 12.1941C5.0586 12.4111 5.18934 12.6019 5.37092 12.7356C5.5525 12.8692 5.77423 12.9378 6 12.9301H15C15.1847 12.9295 15.3656 12.8781 15.5227 12.7816C15.6797 12.685 15.8069 12.5471 15.89 12.3831L19.17 5.85864C19.3122 5.56227 19.3783 5.23551 19.3626 4.90751C19.3469 4.57951 19.2498 4.26048 19.08 3.97889ZM14.38 10.9409H6.76L5.13 4.97347H17.38L14.38 10.9409Z" fill="white"/>
<path d="M5.5 17.9028C6.32843 17.9028 7 17.2349 7 16.4109C7 15.5869 6.32843 14.9189 5.5 14.9189C4.67157 14.9189 4 15.5869 4 16.4109C4 17.2349 4.67157 17.9028 5.5 17.9028Z" fill="white"/>
<path d="M15.5 17.9028C16.3284 17.9028 17 17.2349 17 16.4109C17 15.5869 16.3284 14.9189 15.5 14.9189C14.6716 14.9189 14 15.5869 14 16.4109C14 17.2349 14.6716 17.9028 15.5 17.9028Z" fill="white"/>
</svg>

<svg width="20" height="18" fill="none" xmlns="http://www.w3.org/2000/svg"><path d="M19.08 3.979a1.994 1.994 0 00-1.7-.995H4.58L4 .737A.994.994 0 003 0H1a.992.992 0 100 1.99h1.24L5 12.193a.995.995 0 001 .736h9a1.005 1.005 0 00.89-.547l3.28-6.524a1.98 1.98 0 00-.09-1.88zm-4.7 6.962H6.76L5.13 4.973h12.25l-3 5.968zM5.5 17.903c.828 0 1.5-.668 1.5-1.492s-.672-1.492-1.5-1.492S4 15.587 4 16.41s.672 1.492 1.5 1.492zM15.5 17.903c.828 0 1.5-.668 1.5-1.492s-.672-1.492-1.5-1.492-1.5.668-1.5 1.492.672 1.492 1.5 1.492z" fill="#fff"/></svg>
